!!!!SEGMENT: pl-wumfc--n53446--001-027_moniuszko-stanislaw--hrabina-no-22-sestettino.krn
!!!cenid: 18xx:4114
!!!COM: Moniuszko, Stanisław
!!!COM-rismID: pe30008351
!!!CDT: 1819/05/05-1872/06/04
!!!CNT: Polish
!!!OPR: Hrabina
!!!OTL: No. 22. Sestettino
!!!OMV: 027
!!!PDT:
!!!AGN: Secular; Opera
!!!YEC: Copyright 2022 Narodowy Instytut Fryderyka Chopina (https://polishscores.org)
!!!YEM: License CC-BY-4.0 (https://creativecommons.org/licenses/by/4.0)
!!!SMS-siglum: PL-Wumfc
!!!SMS-shelfmark: N53446
!!!SMS-shelfwork: 001-027 M
!!!SMS-variant:
!!!SMS-altvar:
!!!NIFC-rismSourceID: 1001165649
!!!NIFC-rismChildID: 1001165649
!!!NIFC-islandoraID: pl-wumfc:6884
!!!URL-pdf-islandora: https://repozytorium.nifc.pl/islandora/object/pl-wumfc%3A6884/datastream/PDF/view
!!!URL-scan: https://polish.musicsources.pl/pl/lokalizacje/galeria/druki-muzyczne/12579 @EN{Scan on Polish Music Sources Website} @PL{Skany w portalu Dziedzictwo Muzyki Polskiej w otwartym dostępie}
!!!IIIF:
!!!ONB-nifc:
!!!AIN: 1 piano
!!!key: B-
**kern	**kern	**text	**dynam
*part1	*part1	*	*
*staff2	*staff1	*	*
*I"[Piano.]	*I"[Piano.]	*	*
*>[A,B,B1,B,B2,C]	*>[A,B,B1,B,B2,C]	*	*
*>A	*>A	*	*
*Ipiano	*Ipiano	*	*
*ICklav	*ICklav	*	*
*clefF4	*clefG2	*	*
*k[b-e-]	*k[b-e-]	*	*
*B-:	*B-:	*	*
*M2/4	*M2/4	*	*
=1	=1	=1	=1
!!LO:TX:B:a:t=Allegro.
!	!LO:TX:t=P:problem:cały tekst zapisany ponad pięciolinią	!	!
!LO:TUP:a	!LO:TUP:b	!	!
12D\L	12d/L	.	f
12E-\	12e-/	.	.
12En\J	12en/J	.	.
!LO:TUP:a	!LO:TUP:b	!	!
12F\L	12f/L	.	.
12B-\	12b-/	.	.
12d\J	12dd/J	.	.
=2	=2	=2	=2
8f\	8ff\	.	.
8r	8r	.	.
8.DL 8.DD/	8.ff#XL 8.cc 8.a\	Wsz: Wiel-	ff
16DJk 16DD/	16ff#Jk 16cc 16a\	-ki	.
=3	=3	=3	=3
*ped	*	*	*
(2E- 2EE-^>/	(2gg 2cc 2g^\	Bo-	.
=4	=4	=4	=4
8c 8E-\)	8cc 8g/)	-że!	.
*Xped	*	*	*
8r	8r	.	.
8.cL 8.G 8.E-\	8.ccL 8.g/	co	.
16BnJk 16G 16D\	16ddJk 16f/	to	.
=5	=5	=5	=5
[2c 2G 2C^\	(>2ee- 2e-^>/	zna-	.
=6	=6	=6	=6
8c\]	8g 8e-/)	-czy?	.
8r	8r	.	.
!	!	!	!LO:HP:b:t=dimin.
8.cL 8.C\	8.aL 8.e-/	czy	>
16B-Jk 16BB-\	16b-Jk 16e-/	to	.
!!LO:LB:g=original
=7	=7	=7	=7
8A 8F\	8dd 8e-/	praw-	.
8r	8r	.	.
8A 8F\	8cc 8e-/	-da	.
8r	8r	.	.
=8	=8	=8	=8
4.c 4.F\	4.a 4.e-/	czy	.
8A 8F\	8f 8e-/	to	.
=9	=9	=9	=9
!LO:TUP:a:problem:obie triole zapisane pod jednym łukiem jako sekstola z cyfrą 6	!	!	!
12BB-\L	8b- 8d/	żart?	.
12F\	.	.	.
.	8r	.	.
12B-\J	.	.	.
12d\L	4r	.	.
12B-\	.	.	.
12F\J	.	.	.
=10	=10	=10	=10
!LO:TUP:a:problem:obie triole zapisane pod jednym łukiem jako sekstola z cyfrą 6	!	!	!
12BB-\L	4r	.	.
12D\	.	.	.
12F\J	.	.	.
12B-\L	(12ddL 12b-\	.	p
12F\	12cc 12a\)	.	.
12D\J	12b-J 12g'\	.	.
=11	=11	=11	=11
!LO:TUP:a:problem:obie triole zapisane pod jednym łukiem jako sekstola z cyfrą 6	!	!	!
12BB-\L	4a 4f/	.	.
12C\	.	.	.
12F\J	.	.	.
!	!LO:TUP:b	!	!
12A\L	(12ccL 12a/	.	.
12F\	12b- 12g/)	.	.
12C\J	12aJ 12f'/	.	.
!!LO:LB:g=original
=12	=12	=12	=12
*Xtuplet	*	*	*
(12BB-\L	4g 4e-/	.	.
12E-\	.	.	.
12G\J	.	.	.
*	*Xtuplet	*	*
12B-\L	(12b-L 12g/	.	.
12E-\	12a 12f/)	.	.
12G\J)	12gJ 12e-'/	.	.
=13	=13	=13	=13
(12BB-\L	12fL 12d'/	.	.
12F\	12b- 12f'/	.	.
12B-\J	12ddJ 12b-'/	.	.
12d\L	[4ff [4dd^^\	.	.
12B-\	.	.	.
12F\J)	.	.	.
=14	=14	=14	=14
(12C\L	12ff]L 12dd\]	.	.
12En\	12een 12cc'\	.	.
12G\J	12ddJ 12b-'\	.	.
12cL 12C\	(12ddL 12b-\	.	.
12D\	12cc 12a\)	.	.
12E\J)	12b-J 12g'\	.	.
=15	=15	=15	=15
(12FF\L	4a 4f/	.	.
12F\	.	.	.
12A\J	.	.	.
12c\L	(12ccL 12a/	.	.
12A\	12b- 12g/)	.	.
12F\J)	12aJ 12f'/	.	.
=16	=16	=16	=16
(12FF\L	4g 4e-/	.	.
12F\	.	.	.
12A\J	.	.	.
12c\L	(12b-L 12g/	.	.
12A\	12a 12f/)	.	.
12F\J)	12gJ 12e-'/	.	.
!!LO:LB:g=original
=17	=17	=17	=17
(12BB-\L	12fL 12d'/	.	<
12D\	12b- 12f'/	.	.
12F\J	12ddJ 12b-'/	.	[[
12B-\L	4ff 4dd^^\	.	.
12F\	.	.	.
12d\J)	.	.	.
=18	=18	=18	=18
*^	*^	*	*
!	!LO:N:vis=2	!	!	!	!
(2D/	12D\L	12r	2cc 2a\	.	.
.	12A\	12ff#X'/L	.	.	.
.	12c\J	12ff#'/J	.	.	.
.	.	8qqgg/	.	.	.
.	12d\L	(>12ff#/L	.	.	.
.	12c\	12een/)	.	.	.
.	12A\J)	12ff#'/J	.	.	.
*v	*v	*	*	*	*
=19	=19	=19	=19	=19
(12AA\L	12gg/L	2bn\	.	.
12G\	12ffn/	.	.	.
12Bn\J	12een/J	.	.	.
12d\L	4dd/	.	.	.
12B\	.	.	.	.
12G\J)	.	.	.	.
=20	=20	=20	=20	=20
*^	*	*	*	*
!	!LO:N:vis=2	!	!	!	!
(2C/	12C\L	12r	2b-X 2g\	.	.
.	12G\	12een'/L	.	.	.
.	12B-X\J	12ee'/J	.	.	.
.	.	8qqff/	.	.	.
.	12c\L	(12ee/L	.	.	.
.	12B-\	12dd/)	.	.	.
.	12G\J)	12ee'/J	.	.	.
*v	*v	*	*	*	*
=21	=21	=21	=21	=21
(12FF\L	12ff/L	2a\	.	.
12F\	12ee-X/	.	.	.
12A\J	12dd/J	.	.	.
12c\L	4cc/	.	.	.
12A\	.	.	.	.
12F\J)	.	.	.	.
!!LO:LB:g=original
=22	=22	=22	=22	=22
*^	*	*	*	*
!	!LO:N:vis=2	!	!	!	!
(2BB-/	12BB-\L	12r	2a-X\	.	.
.	12F\	12dd'/L	.	.	.
.	12A-X\J	12dd'/J	.	.	.
.	.	8qqee-/	.	.	.
.	12B-\L	(12dd/L	.	.	.
.	12A-\	12cc/)	.	.	.
.	12F\J)	12dd'/J	.	.	.
*v	*v	*	*	*	*
*	*v	*v	*	*
=23	=23	=23	=23
!LO:TUP:a:problem:klamra łukowa	!	!	!
.	8qqg/	.	.
12E-\L	(12ff\L	.	.
12G\	12ee-\)	.	.
12B-\J	12ee-'\J	.	.
!LO:TUP:a:problem:klamra łukowa	!	!	!
12E-\L	(12ee-\L	.	.
12G\	12dd\)	.	.
12Bn\J	12dd'\J	.	.
=24	=24	=24	=24
!LO:TUP:a:problem:klamra łukowa	!	!	!
12E-\L	(12dd\L	.	.
12G\	12cc\)	.	.
12c\J	12cc'\J	.	.
!LO:TUP:a:problem:klamra łukowa	!	!	!
12En\L	(12cc\L	.	.
12G\	12b-\)	.	.
12c\J	12b-'\J	.	.
=25	=25	=25	=25
*^	*	*	*
(4F/	12F\L	(12b-/L	.	.
.	12A\	12a/)	.	.
.	12c\J	12g'/J	.	.
4E-/	12E-X\L	4f/	.	.
.	12F\	.	.	.
.	12A\J)	.	.	.
=26	=26	=26	=26	=26
(4D/	12D\L	4r	.	.
.	12F\	.	.	.
.	12B-\J	.	.	.
4BB-/	12BB-\L	(12ddL 12b-\	.	.
.	12F\	12cc 12a\)	.	.
.	12B-\J)	12b-J 12g'\	.	.
*v	*v	*	*	*
!!LO:PB:g=original
=27	=27	=27	=27
(12FF\L	4a 4f/	.	.
12F\	.	.	.
12A\J	.	.	.
12c\L	(12ccL 12a/	.	.
12A\	12b- 12g/)	.	.
12F\J)	12aJ 12f'/	.	.
=28	=28	=28	=28
!LO:TUP:a:problem:klamra łukowa	!	!	!
12G\L	4g 4e-/	.	.
12B-\	.	.	.
12e-\J	.	.	.
!LO:TUP:a:problem:klamra łukowa	!	!	!
12E-\L	(12b-L 12g/	.	.
12G\	12a 12f/)	.	.
12B-\J	12gJ 12e-'/	.	.
=29	=29	=29	=29
(12BB-\L	12fL 12d/	.	<
12F\	12b- 12f/	.	.
12B-\J	12ddJ 12b-/	.	[[
12d\L	[4ff [4dd^\	.	.
12B-\	.	.	.
12F\J)	.	.	.
=30	=30	=30	=30
*^	*	*	*
!	!LO:N:vis=2	!	!	!
(2C/	12C\L	(12ff]L 12dd\]	.	.
.	12En\	12een 12cc\)	.	.
.	12G\J	12ddJ 12b-'\	.	.
.	12c\L	(12ddL 12b-\	.	.
.	12G\	12cc 12a\)	.	.
.	12E\J)	12b-J 12g'\	.	.
*v	*v	*	*	*
=31	=31	=31	=31
!LO:TUP:a:problem:klamra łukowa	!	!	!
12F\L	4a 4f/	.	.
12A\	.	.	.
12c\J	.	.	.
!LO:TUP:a:problem:klamra łukowa	!	!	!
12FF\L	(12ccL 12a/	.	.
12C\	12b- 12g/)	.	.
12A\J	12aJ 12f'/	.	.
!!LO:LB:g=original
=32	=32	=32	=32
!LO:TUP:a:problem:klamra łukowa	!	!	!
12GG\L	4g 4e-/	.	.
12E-\	.	.	.
12B-\J	.	.	.
!LO:TUP:a:problem:klamra łukowa	!	!	!
12E-\L	(12b-L 12g/	.	.
12G\	12a 12f/)	.	.
12B-\J	12gJ 12e-'/	.	.
=33	=33	=33	=33
*^	*	*	*
!	!LO:N:vis=2	!	!	!
(2BB-/	12BB-\L	(12fL 12d/	.	<
.	12F\	12b- 12f/)	.	.
.	12B-\J	12ddJ 12b-'/	.	[
.	12d\L	4ff 4dd^^\	.	.
.	12B-\	.	.	.
.	12F\J)	.	.	.
=34	=34	=34	=34	=34
*	*	*^	*	*
!	!LO:N:vis=2	!	!	!	!
(2D/	12D\L	12r	2cc 2a\	.	.
.	12A\	12ff#X'/L	.	.	.
.	12c\J	12ff#'/J	.	.	.
.	.	8qqgg/	.	.	.
.	12d\L	(12ff#/L	.	.	.
.	12c\	12een/)	.	.	.
.	12A\J)	12ff#'/J	.	.	.
*v	*v	*	*	*	*
=35	=35	=35	=35	=35
(12GG\L	(12gg/L	2bn\	.	.
12G\	12ffn/	.	.	.
12Bn\J	12een/J	.	.	.
12d\L	4dd/)	.	.	.
12B\	.	.	.	.
12G\J)	.	.	.	.
=36	=36	=36	=36	=36
*^	*	*	*	*
!	!LO:N:vis=2	!	!	!	!
(2C/	12C\L	12r	2b-X 2g\	.	.
.	12G\	12een'/L	.	.	.
.	12B-X\J	12ee'/J	.	.	.
.	.	8qqff/	.	.	.
.	12c\L	(12ee/L	.	.	.
.	12B-\	12dd/)	.	.	.
.	12G\J)	12ee'/J	.	.	.
*v	*v	*	*	*	*
!!LO:LB:g=original
=37	=37	=37	=37	=37
(12FF\L	(12ff/L	2a\	.	.
12F\	12ee-X/	.	.	.
12A\J	12dd/J	.	.	.
12c\L	4cc/)	.	.	.
12A\	.	.	.	.
12F\J)	.	.	.	.
=38	=38	=38	=38	=38
*^	*	*	*	*
!	!LO:N:vis=2	!	!	!	!
(2BB-/	12BB-\L	12r	2a-X 2f\	.	.
.	12F\	12dd'/L	.	.	.
.	12A-X\J	12dd'/J	.	.	.
.	.	8qqee-/	.	.	.
.	12B-\L	(12dd/L	.	.	.
.	12A-\	12cc/)	.	.	.
.	12F\J)	12dd'/J	.	.	.
*	*	*v	*v	*	*
=39	=39	=39	=39	=39
!LO:TUP:a:problem:klamra łukowa	!	!	!	!
.	.	8qg/	.	.
4E-/	12E-\L	(12ff\L	.	.
.	12G\	12gg\)	.	.
.	12c\J	12ee-'\J	.	.
!LO:TUP:a:problem:klamra łukowa	!	!	!	!
4E-/	12E-\L	(12ee-\L	.	.
.	12G\	12ff\)	.	.
.	12c\J	12dd'\J	.	.
=40	=40	=40	=40	=40
!LO:TUP:a:problem:klamra łukowa	!	!	!	!
4E-/	12E-\L	(12dd\L	.	.
.	12G\	12ee-\)	.	.
.	12c\J	12cc'\J	.	.
!LO:TUP:a:problem:klamra łukowa	!	!	!	!
4E-/	12E-\L	(12cc\L	.	.
.	12G\	12dd\)	.	.
.	12c\J	12b-'\J	.	.
=41	=41	=41	=41	=41
!LO:TUP:a:problem:klamra łukowa	!	!	!	!
4E-/	12E-\L	(12b-/L	.	.
.	12G\	12cc/)	.	.
.	12c\J	12a'/J	.	.
!LO:TUP:a:problem:klamra łukowa	!	!	!	!
4E-/	12E-\L	(12a/L	.	.
.	12G\	12b-/)	.	.
.	12c\J	12g'/J	.	.
!!LO:LB:g=original
=42	=42	=42	=42	=42
!LO:TUP:a:problem:klamra łukowa	!	!	!	!
4E-/	12E-\L	(12g/L	.	.
.	12G\	12a/)	.	.
.	12c\J	12f'/J	.	.
!LO:TUP:a:problem:klamra łukowa	!	!	!	!
4C/	12C\L	(12f/L	.	.
.	12G\	12g/)	.	.
.	12c\J	12e-'/J	.	.
*v	*v	*	*	*
=43	=43	=43	=43
*ped	*	*	*
(12F\L	12d/L	.	.
12B-\	12f/	.	.
12d\J	12b-/J	.	.
12f\L	[4dd [4b-\	.	.
12d\	.	.	.
12B-\J)	.	.	.
=44	=44	=44	=44
(12F\L	12dd]L 12b-\]	.	.
12B-\	12b-\	.	.
12d\J	12dd\J	.	.
12f\L	[4ff [4dd [4b-\	.	.
12d\	.	.	.
12B-\J)	.	.	.
=45	=45	=45	=45
(12F\L	12ff]L 12dd] 12b-\]	.	.
12B-\	12dd\	.	.
12d\J	12ff\J	.	.
12f\L	[4bb- [4dd [4b-\	.	f
12d\	.	.	.
12B-\J)	.	.	.
=46	=46	=46	=46
12F\L	8bb-]L 8dd] 8b-\]	.	.
12d\	.	.	.
.	8dd 8b-'\	.	.
12B-\J	.	.	.
12F\L	8ee- 8cc'\	.	.
12D\	.	.	.
.	8ffJ 8dd'\	.	.
12BB-\J	.	.	.
!!LO:LB:g=original
=47	=47	=47	=47
8e-L 8c\	8gg-XL 8ee-\	.	.
16r	16r	.	.
16e-Jk 16c 16F\	16gg-Jk 16ee- 16cc 16b-\	.	.
4e- 4c 4F\	[4gg- [4ee- [4cc [4b-\	.	.
=48	=48	=48	=48
8e-L 8c 8F\	8gg-]L 8ee-] 8cc] 8b-\]	.	.
8e- 8c 8F\	8ff 8b-'\	.	.
8e- 8F\	8ee- 8b-'\	.	.
8e-J 8F\	8ccJ 8b-'\	.	.
=49	=49	=49	=49
8e- 8c 8F\	8a/L	.	.
8r	16f/L	.	.
.	16g/JJ	.	.
4f 4F\	16a\LL	.	.
.	16b-\	.	.
.	16cc\	.	.
.	16dd\JJ	.	.
=50	=50	=50	=50
4e- 4E-\	16ee-\LL	.	.
.	16dd\	.	.
.	16cc\	.	.
.	16dd\JJ	.	.
4c 4C\	16ee-\LL	.	.
.	16ff\	.	.
.	16gg\	.	.
.	16aa\JJ	.	.
=51	=51	=51	=51
8B- 8BB-\	8bb-\	.	.
8r	8r	.	.
8B- 8F 8D 8BB-\	8ddd 8bb- 8ff 8dd\	.	sf
8r	8r	.	.
!!LO:PB:g=original
=52	=52	=52	=52
8BB- 8BBB-/	8bb- 8ff 8dd 8b-\	.	sf
8r	8r	.	.
8.B-\L	8.b-\L	Pod: Niech	p
16c\Jk	16cc\Jk	no	.
=53	=53	=53	=53
4d\	4dd\	Wasz-	.
4A\	4a/	-mość	.
=54	=54	=54	=54
4B-\	4b-\	słu-	.
4A-X 4D\	4bn 4f/	-chać	.
=55	=55	=55	=55
*	*	*^	*
8GL 8E-\	8ccL 8g/	raczy.	.	.
16r	16r	.	.	.
16cJk 16F\	16ccJk 16a-X/	Czy	Wszy-	f
8cL 8E-\	8ccL 8g/	jesz-	-scy.	.
16r	16r	.	.	.
16cJk 16D\	16ccJk 16f/	-cze	.	.
*	*	*v	*v	*
=56	=56	=56	=56
8cL 8C\	8ccL 8e-\	co,	.
16r	16r	.	.
16F\Jk 16FF\	16cccJk 16aa-X 16cc\	czy	ff
8E-L 8EE-/	8cccL 8gg 8cc\	jesz-	.
16r	16r	.	.
16DJk 16DD/	16cccJk 16ff 16cc\	-cze	.
!!LO:LB:g=original
=57	=57	=57	=57
*^	*	*	*
8C 8GG 8EE-/	4ryy	8ccc 8ee- 8cc\	co?	.
8r	.	8r	.	.
!	!	!LO:TX:i:b:t=scherz.	!	!
4F/	12F\L	8.g/L	Pod: Jak	p
.	12G\	.	.	.
.	12Bn\J	.	.	.
.	.	16g/Jk	go-	.
=58	=58	=58	=58	=58
4E-/	12E-\L	8.cc\L	-łąb-	.
.	12G\	.	.	.
.	12c\J	.	.	.
.	.	16cc\Jk	-ków	.
4D/	12D\L	8.ddL 8.f/	pa-	.
.	12G\	.	.	.
.	12Bn\J	.	.	.
.	.	16dd/Jk	-ra	.
=59	=59	=59	=59	=59
4C/	12C\L	8ee-L 8e-/	bia-	.
.	12G\	.	.	.
.	.	8cc/J	-ła,	.
.	12c\J	.	.	.
4F/	12F\L	8.g/L	ja-	.
.	12G\	.	.	.
.	12Bn\J	.	.	.
.	.	16g/Jk	-ko	.
=60	=60	=60	=60	=60
4E-/	12E-\L	8.cc\L	dwie	.
.	12G\	.	.	.
.	12c\J	.	.	.
.	.	16cc\Jk	sy-	.
4D/	12D\L	8.ddL 8.f/	-no-	.
.	12G\	.	.	.
.	12Bn\J	.	.	.
.	.	16dd/Jk	-gar-	.
!!LO:LB:g=original
=61	=61	=61	=61	=61
4C/	12C\L	8ee-L 8e-/	-li-	.
.	12G\	.	.	.
.	.	8ee-/J	-ce,	.
.	12c\J	.	.	.
4D-X/	12D-\L	8.ee-L 8.e-/	o-	.
.	12E-\	.	.	.
.	12G\J	.	.	.
.	.	16ee-Jk 16e-/	-na	.
=62	=62	=62	=62	=62
4C/	12C\L	8.aa-XL 8.a-X\	ko-	.
.	12E-\	.	.	.
.	12A-X\J	.	.	.
.	.	16aa-Jk 16a-\	-cha	.
4BB-/	12BB-\L	8.bb-L 8.dd-X 8.b-\	Ge-	.
.	12E-\	.	.	.
.	12G\J	.	.	.
.	.	16bb-Jk 16b-\	-ne-	.
=63	=63	=63	=63	=63
4AA-X/	12AA-\L	8cccL 8cc\	-ra-	.
.	12E-\	.	.	.
.	.	8aa-XJ 8a-X\	-ła	.
.	12A-X\J	.	.	.
4D-X/	12D-\L	8.ee-L 8.e-/	a	.
.	12E-\	.	.	.
.	12B-\J	.	.	.
.	.	16ee-Jk 16e-/	pul-	.
=64	=64	=64	=64	=64
4C/	12C\L	8.aa-XL 8.a-X\	-kow-	.
.	12E-\	.	.	.
.	12A-X\J	.	.	.
.	.	16aa-Jk 16a-\	-nik	.
4BB-/	12BB-\L	8.bb-L 8.dd-X 8.b-\	te	.
.	12E-\	.	.	.
.	12G\J	.	.	.
.	.	16bb-Jk 16b-\	dzie-	.
*v	*v	*	*	*
!!LO:LB:g=original
=65	=65	=65	=65
8A-XL 8AA-X'/	8ccc 8cc\	-wicę,	.
8C'/	16e-LL 16c/	.	.
.	16A-X/JJ	.	.
8EE-'/J	16e-LL 16c/	.	.
.	16A-/	.	.
8r	16e- 16c/	.	.
.	16A-/JJ	.	.
=66	=66	=66	=66
*	*^	*	*
8AA-X'/L	4r	16e-\LL	.	.
.	.	16c\	.	.
8C'/	.	16e-\	.	.
.	.	16c\JJ	.	.
8E-'^/J	8.cc/L	16e-\LL	kie-	.
.	.	16c\	.	.
8r	.	16e-\	.	.
.	16cc/Jk	16c\JJ	-dy	.
=67	=67	=67	=67	=67
8AAn'/L	4.cc/	16e-\LL	już	.
.	.	16c\	.	.
8C'/	.	16e-\	.	.
.	.	16c\JJ	.	.
8FF'^/J	.	16e-\LL	.	.
.	.	16c\	.	.
8r	8f/	16e-\	po-	.
.	.	16c\JJ	.	.
=68	=68	=68	=68	=68
8AAn'/L	4.f/	16e-\LL	-wró-	.
.	.	16c\	.	.
8C'/	.	16e-\	.	.
.	.	16c\JJ	.	.
8F^/J	.	16e-\LL	.	.
.	.	16c\	.	.
8r	8f/	16e-\	-cił	.
.	.	16c\JJ	.	.
!!LO:LB:g=original
=69	=69	=69	=69	=69
8BB-'/L	2f/	16d\LL	z woj-	.
.	.	16B-\	.	.
8D'/	.	16d\	.	.
.	.	16B-\JJ	.	.
8FF^/J	.	16d\LL	.	.
.	.	16B-\	.	.
8r	.	16d\	.	.
.	.	16d\JJ	.	.
=70	=70	=70	=70	=70
8BB-'/L	8dd/	16f\LL	-ny	.
.	.	16d\	.	.
8D'/	8r	16f\	.	.
.	.	16d\JJ	.	.
8F^/J	8.dd/L	16f\LL	Kaz: Dość	.
.	.	16d\	.	.
8r	.	16f\	.	.
.	16dd/Jk	16d\JJ	już	.
=71	=71	=71	=71	=71
*	*	*	*^	*
8BBn'/L	8dd/L	16f\LL	te-	.	.
.	.	16d\	.	.	.
8D'/	8g/J	16f\	-go.	.	.
.	.	16d\JJ	.	.	.
8GG^/J	8g/L	16f\LL	Bądź	Pod:	.
.	.	16d\	.	.	.
8r	8g/J	16f\	spo-	.	.
.	.	16d\JJ	.	.	.
*	*	*	*v	*v	*
=72	=72	=72	=72	=72
8BBn\L	8f#X/L	16f#\LL	-koj-	.
.	.	16d\	.	.
8D\	8g/J	16g\	-ny,	.
.	.	16d\JJ	.	.
8G\J	8fn/L	16f\LL	bądź	.
.	.	16d\	.	.
8r	8g/J	16g\	spo-	.
.	.	16d\JJ	.	.
!!LO:PB:g=original
=73	=73	=73	=73	=73
8C/L	2en/	16c\LL	-koj-	.
.	.	16G\	.	.
8En/	.	16c\	.	.
.	.	16G\JJ	.	.
8GG^/J	.	16c\LL	.	.
.	.	16G\	.	.
8r	.	16c\	.	.
.	.	16G\JJ	.	.
=74	=74	=74	=74	=74
8C'\L	4g/	16g\LL	-ny!	.
.	.	16c\	.	.
8En'\	.	16en\	.	.
.	.	16c\JJ	.	.
8G^\J	8.g/L	16e\LL	kie-	.
.	.	16c\	.	.
8r	.	16e\	.	.
.	16g/Jk	16c\JJ	-dy	.
=75	=75	=75	=75	=75
8C#X'/L	4.een/	16g\LL	już	.
.	.	16en\	.	.
8En'/	.	16g\	.	.
.	.	16e\JJ	.	.
8AA^/J	.	16g\LL	.	.
.	.	16e\	.	.
8r	8a/	16g\	po-	.
.	.	16e\JJ	.	.
=76	=76	=76	=76	=76
8C#X'\L	4.a/	16g\LL	-wró-	.
.	.	16en\	.	.
8En'\	.	16g\	.	.
.	.	16e\JJ	.	.
8A^\J	.	16g\LL	.	.
.	.	16e\	.	.
8r	8g/	16c#X\	-cił	.
.	.	16e\JJ	.	.
*	*v	*v	*	*
*kcancel	*kcancel	*	*
!!LO:LB:g=original
=77||	=77||	=77||	=77||
*k[f#c#]	*k[f#c#]	*	*
8DL 8DD/	16f#/LL	z woj-	.
.	16A/	-ny	.
8F# 8FF#/	16d/	.	.
.	16f#/JJ	.	.
8A 8AA/	16a/LL	.	.
.	16f#/	.	.
8F#J 8FF#/	16a/	.	.
.	16dd/JJ	.	.
=78	=78	=78	=78
8D 8DD/	8ff# 8a 8f#\	.	.
8r	8r	.	.
(<[4A 4D\	8.f#/L	w o-	p
.	16f#/Jk	-bec-	.
=79	=79	=79	=79
*^	*	*	*
2A/]	4D#X\	(>4f# 4B#X/	-noś-	.
.	4E\	4g [4c#/	-ci	.
=80	=80	=80	=80	=80
*	*	*^	*	*
2A/	4A\	4e/	2c#\]	tak	.
.	4G\	4bn/	.	do-	.
=81	=81	=81	=81	=81	=81
2A/	4F#\	4a/	4d\	-stoj-	.
.	4E\	16bn/LL	4g\	.	.
.	.	16cc#X/	.	.	.
.	.	16dd/	.	.	.
.	.	16ee/JJ	.	.	.
=82	=82	=82	=82	=82	=82
4A/	4D\	8ff#/)	8f#\	-nej	.
.	.	8r	8ryy	.	.
4A#X/	4C#\)	8.f#/L	4e\	krew-	.
.	.	16f#/Jk	.	-nej	.
*v	*v	*	*	*	*
!!LO:LB:g=original
=83	=83	=83	=83	=83
8B 8BB\	4.dd/	8d\L	na-	.
8r	.	16r	.	.
.	.	16d\Jk	.	.
8B 8BB\	.	8f#\L	.	.
8r	8cc#/	8e\J	-szej	.
*	*v	*v	*	*
=84	=84	=84	=84
.	8qcc#/	.	.
8E\L	8bL 8d/	i	.
8E\	8a 8c#/	.	.
8E\	8b 8d/	.	.
8E\J	8cc#J 8e/	tych	.
=85	=85	=85	=85
8A\	8aL 8c#/	goś-	.
8r	8a/	-ci,	.
8A\L	8a/	po	<
8A\J	8a/J	co	.
=86	=86	=86	=86
8A\L	8a/L	dłu-	.
8A\	8a/	-gie	.
8A\	8a/	ko-	.
8A\J	8a/J	-ro-	[[
=87	=87	=87	=87
*	*^	*	*
4Cn 4CCn/	2cc#/	4g 4e^\	-wo dy?	f
8AL 8Fn 8C\	.	16a\LL	.	.
.	.	16g\	.	.
8AJ 8F 8C\	.	16fn\	.	.
.	.	16a\JJ	.	.
*	*v	*v	*	*
!!LO:LB:g=original
=88	=88	=88	=88
4G 4Cn^\	4ccn 4g 4e^/	.	.
8AL 8Fn 8C'\	16a/LL	.	.
.	16g/	.	.
8AJ 8F 8C'\	16fn/	.	.
.	16a/JJ	.	.
=89	=89	=89	=89
8G 8E 8Cn\	8ccn 8g 8e/	.	.
8r	8r	.	.
8cn\L	8cc\L	pros-	<
8c\J	8cc\J	-to	.
=90	=90	=90	=90
8.cn\L	8.ccn\L	z mos-	.
16c\K	16cc\K	-tu	.
8.c\	8.cc\	pal	.
16c\Jk	16cc\Jk	do	[[
=91	=91	=91	=91
*	*^	*	*
4E 4BB 4EE/	2ee/	4b 4g^\	wody!	ff
8cnL 8A 8E\	.	16ccn\LL	.	.
.	.	16b\	.	.
8cJ 8A 8E\	.	16a\	.	.
.	.	16cc\JJ	.	.
*	*v	*v	*	*
=92	=92	=92	=92
4B 4E\	4b 4g 4e/	.	.
.	8qff#/	.	.
8cnL 8A 8E\	16ee\LL	.	.
.	16dd#X\	.	.
8cJ 8A 8E\	16ee\	.	.
.	16ff#\JJ	.	.
!!LO:LB:g=original
=93	=93	=93	=93
12E'\L	6gg\	.	.
12G'\	.	.	.
12B'\J	12r	.	.
.	8qg/	.	.
!	!LO:TX:B:a:t=Più lento.	!	!
12e'\L	[4gg [4ee\	.	fpp
12B'\	.	.	.
12G'\J	.	.	.
=94	=94	=94	=94
!	!LO:TX:i:b:t=dolcissimo	!	!
12E'\L	4gg] 4ee\]	.	.
12G'\	.	.	.
12B'\J	.	.	.
12e'\L	(12ff#L 12dd\	.	.
12B'\	12ee 12cc#\)	.	.
12G'\J	12ddJ 12b'\	.	.
=95	=95	=95	=95
12AA'\L	4cc# 4a/	.	.
12G'\	.	.	.
12A'\J	.	.	.
12c#'\L	(12eeL 12cc#\	.	.
12A'\	12dd 12b\)	.	.
12G'\J	12cc#J 12a'\	.	.
=96	=96	=96	=96
12AA'\L	4b 4g/	.	.
12E'\	.	.	.
12A'\J	.	.	.
12c#'\L	(12ddL 12b\	.	.
12A'\	12cc# 12a\)	.	.
12E'\J	12bJ 12g'\	.	.
!!LO:PB:g=original
=97	=97	=97	=97
12D\L	(12aL 12f#\	.	.
12F#\	12dd 12a\)	.	.
12A\J	12ff#J 12dd'\	.	.
12d\L	[4aa [4ff#^^\	.	.
12A\	.	.	.
12F#\J	.	.	.
=98	=98	=98	=98
12EE'/L	(12aa]L 12ff#\]	.	.
12BB'/	12gg#X 12ee\)	.	.
12E'/J	12ff#J 12dd'\	.	.
12G#X'\L	(12ff#L 12dd\	ja	.
12E'\	12ee 12cc#\)	.	.
12BB'\J	12ddJ 12b'\	o-	.
=99	=99	=99	=99
12AA'/L	4cc# 4a\	-świad-	.
12C#'/	.	.	.
12E'/J	.	.	.
12A'\L	(12eeL 12cc#\	-czam	.
12E'\	12dd 12b\)	.	.
12C#'\J	12cc#J 12a'\	.	.
=100	=100	=100	=100
12AA/L	4b 4g/	go	.
12C#/	.	.	.
12E/J	.	.	.
12A\L	(12ddL 12b\	Wasz	.
12E\	12cc# 12a\)	.	.
12C#\J	12bJ 12g'\	.	.
=101	=101	=101	=101
12D'\L	12aL 12f#'\	moś-	.
12F#'\	12dd 12a'\	.	.
12A'\J	12ff#J 12dd'\	.	.
12d'\L	4aa 4ff#\	-ci	.
12A'\	.	.	.
12F#'\J	.	.	.
!!LO:LB:g=original
=102	=102	=102	=102
*	*^	*	*
12FF#'\L	12r	2ee 2cc#\	.	.
12F#'\	12aa#X'/L	.	.	.
12c#'\J	12aa#'/J	.	.	.
.	8qbb/	.	.	.
12f#'\L	(12aa#/L	.	po-	.
12c#'\	12gg#X/)	.	.	.
12F#'\J	12aa#'/J	.	-bło-	.
=103	=103	=103	=103	=103
12BB'\L	(12bb'/L	2dd#X\	-go-	.
12B'\	12aan'/	.	.	.
12d#X'\J	12gg#X'/J)	.	.	.
12f#'\L	6ff#/	.	.	.
12d#'\	.	.	.	.
12B'\J	12r	.	.	.
=104	=104	=104	=104	=104
*ped	*	*	*	*
12EE'\L	12r	2ddn 2b\	.	.
12E'\	12gg#X'/L	.	-sław!	.
12B'\J	12gg#'/J	.	.	.
.	8qaa/	.	.	.
12e'\L	(12gg#/L	.	po-	.
12B'\	12ff#/)	.	.	.
*Xped	*	*	*	*
12E'\J	12gg#'/J	.	-bło-	.
=105	=105	=105	=105	=105
12AA'\L	(12aa'/L	2cc#\	-go-	.
12A'\	12ggn'/	.	.	.
12c#'\J	12ff#X'/J)	.	.	.
12e'\L	6ee/	.	-sław!	.
12c#'\	.	.	.	.
12A'\J	12r	.	.	.
!!LO:LB:g=original
=106	=106	=106	=106	=106
12DD'\L	12r	2ccn 2a\	.	.
12D'\	12ff#'/L	.	.	.
12A'\J	12ff#'/J	.	.	.
.	8qgg/	.	.	.
12d'\L	(12ff#/L	.	po-	.
12A'\	12ee/)	.	.	.
12D'\J	12ff#'/J	.	-bło-	.
*	*v	*v	*	*
=107	=107	=107	=107
8G\L	8aaL 8b\	-gosław	.
16r	16r	.	.
16E\Jk	16ggJk 16b\	.	.
8F#\L	8ff#L 8b 8a\	ich	.
16r	16r	.	.
16G\Jk	16eeJk 16b 16g\	ko-	.
=108||	=108||	=108||	=108||
8A\	8ddL 8a 8f#/	-cha-	.
8r	16cc#/L	.	.
.	16b/JJ	.	.
8c# 8E 8AA\	16a/LL	.	.
.	16g/	.	.
8r	16f#/	.	.
.	16e/JJ	.	.
=109	=109	=109	=109
!	!LO:TX:B:a:t=Tempo I.	!	!
8F# 8D\	8d/	-nie!	.
16r	16r	.	.
!	!	!	!LO:HP:b:t=molto cresc.
16AKL 16D\	16f#KL 16d/	.	<
8A 8D\	8f# 8d/	.	.
16r	16r	.	.
16AJk 16D\	16f#Jk 16d/	.	.
!!LO:LB:g=original
=110	=110	=110	=110
8F#L 8D\	8d/L	.	.
16r	16r	.	.
16AK 16D\	16aK 16f#/	.	.
8A 8D\	8a 8f#/	.	.
16r	16r	.	.
16AJk 16D\	16aJk 16f#/	.	.
=111	=111	=111	=111
8AL 8D\	8f#L 8d/	.	.
16r	16r	.	.
16AK 16D\	16ddK 16f#/	.	.
8A 8D\	8dd 8f#/	.	.
16r	16r	.	.
16AJk 16D\	16ddJk 16f#/	.	.
=112	=112	=112	=112
8A 8D\	8aL 8f#\	.	.
16r	16r	.	.
16DKL 16DD/	16ff#XK 16ccn 16a\	.	f
8D 8DD/	8ff# 8cc 8a\	.	.
16r	16r	.	.
16DJk 16DD/	16ff#Jk 16cc 16a\	.	.
=113||	=113||	=113||	=113||
*k[b-e-]	*k[b-e-]	*	*
(2E- 2EE-/	(2gg 2cc 2g^^\	.	f
=114	=114	=114	=114
8c 8G 8E-\)	8cc 8g/)	.	.
8r	8r	.	.
8.cL 8.G 8.E-\	8.ccL 8.g/	.	.
16BnJk 16G 16D\	16ddJk 16f/	.	.
!!LO:LB:g=original
=115	=115	=115	=115
*ped	*	*	*
[2c 2G 2C^^\	(>2ee- 2e-^^/	.	.
=116	=116	=116	=116
8c\]	8g 8e-/)	.	.
*Xped	*	*	*
8r	8r	.	.
8.cL 8.C\	8.aL 8.e-/	.	mf
16B-Jk 16C\	16b-Jk 16e-/	.	.
=117	=117	=117	=117
8A 8F\	8dd 8e-/	.	.
8r	8r	.	.
8A 8F\	8cc 8e-/	.	.
8r	8r	.	.
=118	=118	=118	=118
8c 8F\	8a 8e-/	.	.
8r	8r	.	.
8A 8F\	8f 8e-/	.	.
8r	8r	.	.
=119	=119	=119	=119
(12BB-\L	8b- 8d/	.	.
12F\	.	.	.
.	8r	.	.
12B-\J	.	.	.
12d\L	4r	.	.
12B-\	.	.	.
12F\J)	.	.	.
=120	=120	=120	=120
(12BB-\L	4r	.	.
12D\	.	.	.
12F\J	.	.	.
12B-\L	12ddL 12b-\	.	p
12F\	12cc 12a\	.	.
12D\J)	12b-J 12g\	.	.
!!LO:PB:g=original
=121	=121	=121	=121
(12BB-\L	4a 4f/	.	.
12C\	.	.	.
12F\J	.	.	.
12A\L	12ccL 12a/	.	.
12F\	12b- 12g/	.	.
12C\J)	12aJ 12f/	.	.
=122	=122	=122	=122
(12BB-\L	4g 4e-/	.	.
12E-\	.	.	.
12G\J	.	.	.
12B-\L	12b-L 12g/	.	.
12G\	12a 12f/	.	.
12E-\J)	12gJ 12e-/	.	.
=123	=123	=123	=123
(12BB-\L	12fL 12d/	.	.
12F\	12b- 12f/	.	.
12B-\J	12ddJ 12b-/	.	.
12d\L	[4ff [4dd^^\	.	.
12B-\	.	.	.
12F\J)	.	.	.
=124	=124	=124	=124
(12C\L	12ff]L 12dd\]	.	.
12En\	12een 12cc\	.	.
12G\J	12ddJ 12b-\	.	.
12cL 12C\	12ddL 12b-\	.	.
12D\	12cc 12a\	.	.
12E\J)	12b-J 12g\	.	.
=125	=125	=125	=125
(12FF\L	4a 4f/	.	.
12F\	.	.	.
12A\J	.	.	.
12c\L	12ccL 12a/	.	.
12A\	12b- 12g/	.	.
12F\J)	12aJ 12f/	.	.
!!LO:LB:g=original
=126	=126	=126	=126
(12FF\L	4g 4e-/	.	.
12F\	.	.	.
12A\J	.	.	.
12c\L	12b-L 12g/	.	.
12A\	12a 12f/	.	.
12F\J)	12gJ 12e-/	.	.
=127	=127	=127	=127
(12BB-\L	12fL 12d/	.	<
12D\	12b- 12f/	.	.
12F\J	12ddJ 12b-/	.	[
12B-\L	4ff 4dd^^\	.	.
12F\	.	.	.
12d\J)	.	.	.
=128	=128	=128	=128
*^	*^	*	*
!	!LO:N:vis=2	!	!	!	!
(2D/	12D\L	12r	2cc 2a\	.	.
.	12A\	12ff#X/L	.	.	.
.	12c\J	12ff#/J	.	.	.
.	.	8qgg/	.	.	.
.	12d\L	(12ff#/L	.	.	.
.	12c\	12een/)	.	.	.
.	12A\J)	12ff#/J	.	.	.
*v	*v	*	*	*	*
=129	=129	=129	=129	=129
(12GG\L	(12gg/L	2bn\	.	.
12G\	12ffn/	.	.	.
12Bn\J	12een/J	.	.	.
12d\L	6dd/)	.	.	.
12B\	.	.	.	.
12G\J)	12r	.	.	.
=130	=130	=130	=130	=130
*^	*	*	*	*
!	!LO:N:vis=2	!	!	!	!
(2C/	12C\L	12r	2b-X 2g\	.	.
.	12G\	12een/L	.	.	.
.	12B-X\J	12ee/J	.	.	.
.	.	8qff/	.	.	.
.	12c\L	(12ee/L	.	.	.
.	12B-\	12dd/)	.	.	.
.	12G\J)	12ee/J	.	.	.
*v	*v	*	*	*	*
!!LO:LB:g=original
=131	=131	=131	=131	=131
(12FF\L	12ff/L	2a\	.	.
12F\	12ee-X/	.	.	.
12A\J	12dd/J	.	.	.
12c\L	6cc/	.	.	.
12A\	.	.	.	.
12F\J)	12r	.	.	.
=132	=132	=132	=132	=132
*^	*	*	*	*
!	!LO:N:vis=2	!	!	!	!
(2BB-/	12BB-\L	12r	2a-X 2f\	.	.
.	12F\	12dd/L	.	.	.
.	12A-X\J	12dd/J	.	.	.
.	.	8qee-/	.	.	.
.	12B-\L	(12dd/L	.	.	.
.	12A-\	12cc/)	.	.	.
.	12F\J)	12dd/J	.	.	.
*v	*v	*	*	*	*
*	*v	*v	*	*
=133	=133	=133	=133
!LO:TUP:a:problem:klamra łukowa	!	!	!
.	8qg/	.	.
12E-\L	(12ff\L	.	.
12G\	12gg\)	.	.
12c\J	12ee-'\J	.	.
!LO:TUP:a:problem:klamra łukowa	!	!	!
12E-\L	(12ee-\L	.	.
12G\	12ff\)	.	.
12c\J	12dd'\J	.	.
=134	=134	=134	=134
!LO:TUP:a:problem:klamra łukowa	!	!	!
12E-\L	(12dd\L	.	.
12G\	12ee-\)	.	.
12c\J	12cc'\J	.	.
!LO:TUP:a:problem:klamra łukowa	!	!	!
12E-\L	(12cc\L	.	.
12G\	12dd\)	.	.
12c\J	12b-'\J	.	.
!!LO:LB:g=original
=135	=135	=135	=135
!LO:TUP:a:problem:klamra łukowa	!	!	!
12E-\L	(12b-\L	.	.
12G\	12cc\)	.	.
12c\J	12a'\J	.	.
!LO:TUP:a:problem:klamra łukowa	!	!	!
12E-\L	(12a/L	.	.
12G\	12b-/)	.	.
12c\J	12g'/J	.	.
=136	=136	=136	=136
!LO:TUP:a:problem:klamra łukowa	!	!	!
12E-\L	(12g/L	.	.
12G\	12a/)	.	.
12c\J	12f'/J	.	.
!LO:TUP:a:problem:klamra łukowa	!	!	!
12C\L	(12f/L	.	.
12G\	12g/)	.	.
12c\J	12e-'/J	.	.
=137	=137	=137	=137
*ped	*	*	*
(12F\L	12d/L	.	<
12B-\	12f/	.	.
12d\J	12b-/J	.	.
12f\L	[4dd [4b-^^\	.	.
12d\	.	.	.
12B-\J)	.	.	.
=138	=138	=138	=138
(12F\L	12dd]L 12b-\]	.	.
12B-\	12b-\	.	.
12d\J	12dd\J	.	.
12f\L	[4ff [4dd [4b-^^\	.	.
12d\	.	.	.
12B-\J)	.	.	.
=139	=139	=139	=139
12F\L	12ff]L 12dd] 12b-\]	.	.
12B-\	12dd\	.	.
12d\J	12ff\J	.	.
12f\L	[4bb- [4dd [4b-\	.	f
12d\	.	.	.
12B-\J	.	.	.
!!LO:LB:g=original
=140	=140	=140	=140
*Xped	*	*	*
12F\L	8bb-] 8dd] 8b-\]	.	.
12d\	.	.	.
.	8ddL 8b-'\	.	<
12B-\J	.	.	.
12F\L	8ee- 8cc'\	.	.
12D\	.	.	.
.	8ffJ 8dd'\	.	[[
12BB-\J	.	.	.
=141	=141	=141	=141
8r	8gg-X 8ee-'\	.	.
16r	16r	.	.
[16e- [16c [16F^^\	16gg- 16ee- 16cc 16b-\	.	ff
4e-_ 4c_ 4F\_	[4gg- [4ee- 4cc [4b-\	.	.
=142	=142	=142	=142
8e-]L 8c] 8F\]	8gg-]L 8ee-] 8cc 8b-\]	.	.
8e- 8c 8F'\	8ff 8b-'\	.	.
8e- 8c 8F'\	8ee- 8b-'\	.	.
8e-J 8F'\	8ccJ 8b-'\	.	.
=143	=143	=143	=143
8e- 8c 8F\	8a/L	.	.
8r	16f/L	.	.
.	16g/JJ	.	.
!LO:TX:t=P:problem:spiccato u dołu	!	!	!
4F 4FF^^</	16a\LL	.	.
.	16b-\	.	.
.	16cc\	.	.
.	16dd\JJ	.	.
=144	=144	=144	=144
!LO:TX:t=P:problem:spiccato u dołu	!	!	!
4E- 4EE-^^</	16ee-\LL	.	.
.	16dd\	.	.
.	16cc\	.	.
.	16dd\JJ	.	.
!LO:TX:t=P:problem:spiccato u dołu	!	!	!
4C 4CC^^</	16ee-\LL	.	.
.	16ff\	.	.
.	16gg\	.	.
.	16aa\JJ	.	.
!!LO:PB:g=original
=145	=145	=145	=145
*^	*	*	*
8BB- 8BBB-/	4ryy	8bb-\	.	.
8r	.	8r	.	.
8F#X/L	4F#\	(16dd\LL	.	p
.	.	16ee-\	.	.
8dJ 8A'/	.	16dd\	.	.
.	.	16cc\JJ	.	.
=146!|:	=146!|:	=146!|:	=146!|:	=146!|:
*>B	*>B	*>B	*	*
8G/L	4G\	16b-\LL	.	.
.	.	16cc\	.	.
8dJ 8B-'/	.	16b-\	.	.
.	.	16a\JJ	.	.
8E-/L	4E-\	16g/LL	.	.
.	.	16f#X/	.	.
8c#XJ 8G'/	.	16g/	.	.
.	.	16a/JJ	.	.
=147	=147	=147	=147	=147
8D/L	4D\	8f#X/)	.	.
8dJ 8A'/	.	(16f#/LL	.	.
.	.	16g/JJ	.	.
8C/L	4Cn\	16a/LL	.	.
.	.	16d/	.	.
8AJ 8D'/	.	16en/	.	.
.	.	16f#/JJ	.	.
=148	=148	=148	=148	=148
8BB-/L	4BB-\	16g\LL	.	.
.	.	16a\	.	.
8GJ 8D'/	.	16b-\	.	.
.	.	16cc\JJ	.	.
8AA'\L	4ryy	16dd\LL	.	.
.	.	16ee-\	.	.
8cJ 8F'\	.	16gg\	.	.
.	.	16ff\JJ	.	.
*v	*v	*	*	*
!!LO:LB:g=original
=149	=149	=149	=149
(8B-L 8BB-^\	8dd\)	.	.
16A\L	8r	.	.
16G\JJ	.	.	.
8F#X\L)	(16dd\LL	.	.
.	16ee-\	.	.
8dJ 8F#'\	16dd\	.	.
.	16cc\JJ	.	.
=150	=150	=150	=150
8G\L	16b-\LL	.	.
.	16cc\	.	.
8dJ 8B-'\	16b-\	.	.
.	16a\JJ	.	.
8E-\L	16g/LL	.	.
.	16f#X/	.	.
8c#XJ 8G'\	16g/	.	.
.	16a/JJ	.	.
=151	=151	=151	=151
8D\L	8f#X/)	.	.
8dJ 8A'\	(16f#/LL	.	.
.	16g/JJ	.	.
8Cn\L	16a/LL	.	.
.	16d/	.	.
8AJ 8D'\	16en/	.	.
.	16f#/JJ	.	.
=152	=152	=152	=152
8BB-\L	16g/LL	.	.
.	16a/	.	.
8GJ 8D'\	16b-/	.	.
.	16cc/JJ	.	.
8AA'/L	16dd\LL	.	.
.	16ee-\	.	.
8FJ 8FF'/	16gg\	.	.
.	16ff\JJ)	.	.
!!LO:LB:g=original
=153	=153	=153	=153
8BB-/	16ffLL 16dd'\	To	pp
.	16een 16cc#X'\	.	.
8dL 8B- 8F\	16ee-X 16ccn'\	wy-	.
.	16ddJJ 16b-'\	.	.
8d 8B- 8F\	8ffL 8dd'\	-bor-	.
8dJ 8B- 8F\	8ffJ 8dd'\	-na	.
=154	=154	=154	=154
8BB-/	16ffLL 16dd'\	fa-	.
.	16een 16cc#X'\	-ce-	.
8dL 8B- 8F\	16ee-X 16ccn'\	-cyj-	.
.	16ddJJ 16b-'\	.	.
8d 8B- 8F\	8ffL 8dd'\	-ka!	.
8dJ 8B- 8F\	8ffJ 8dd'\	.	.
=155	=155	=155	=155
8B-L 8E-'\	16gg-XLL 16ee-\	.	.
.	16dd\	.	.
8e-J 8c'\	16gg- 16ee-\	.	.
.	16b-\JJ	.	.
8B-L 8E-'\	16gg-LL 16ee-\	.	.
.	16dd\	.	.
8e-J 8c'\	16gg- 16ee-\	.	.
.	16b-\JJ	.	.
=156	=156	=156	=156
8B-L 8E-'\	16gg-XLL 16ee-\	.	.
.	16dd\	.	.
8e-J 8c'\	16gg- 16ee-\	.	.
.	16b-\JJ	.	.
8B-L 8E-'\	16gg-LL 16ee-\	.	.
.	16dd\	.	.
8e-J 8c'\	16gg- 16ee-\	.	.
.	16b-\JJ	.	.
!!LO:LB:g=original
=157	=157	=157	=157
8BB-/	16ffLL 16dd'\	.	.
.	16een 16cc#X'\	.	.
8dL 8B- 8F\	16ee-X 16ccn'\	.	.
.	16ddJJ 16b-'\	.	.
8d 8B- 8F\	8ffL 8dd'\	.	.
8dJ 8B- 8F\	8ffJ 8dd'\	.	.
=158	=158	=158	=158
8BB-/	16ffLL 16dd'\	.	.
.	16een 16cc#X'\	.	.
8dL 8B- 8F\	16ee-X 16ccn'\	.	.
.	16ddJJ 16b-'\	.	.
8d 8B- 8F\	8ffL 8dd'\	.	.
8dJ 8B- 8F\	8ffJ 8dd'\	.	.
=159	=159	=159	=159
8B-L 8E-'\	16gg-XLL 16ee-\	.	.
.	16dd\	.	.
8e-J 8c'\	16gg- 16ee-\	.	.
.	16b-\JJ	.	.
8B-L 8E-'\	16gg-LL 16ee-\	.	.
.	16dd\	.	.
8e-J 8c'\	16gg- 16ee-\	.	.
.	16b-\JJ	.	.
=160	=160	=160	=160
8B-L 8E-'\	16gg-XLL 16ee-\	.	.
.	16dd\	.	.
8e-J 8c'\	16gg- 16ee-\	.	.
.	16b-\JJ	.	.
8B-L 8E-'\	16gg-LL 16ee-\	.	.
.	16dd\	.	.
8e-J 8c'\	16gg- 16ee-\	.	.
.	16b-\JJ	.	.
!!LO:LB:g=original
=161	=161	=161	=161
8d 8B-\	(16ffLL 16dd\	.	.
.	16cc\	.	.
8r	16dd\	.	.
.	16b-\JJ)	.	.
8B-L 8G-X 8E- 8BB-^^\	8gg-XL 8cc 8b- 8g-X^^\	.	.
8B-J 8G- 8E- 8BB-^^\	8gg-J 8cc 8b- 8g-^^\	.	.
=162	=162	=162	=162
8d 8B-\	(16ffLL 16dd\	.	.
.	16cc\	.	.
8r	16dd\	.	.
.	16b-\JJ)	.	.
8B-L 8G-X 8E- 8BB-^^\	8gg-XL 8ee- 8b- 8g-X^^\	.	.
8B-J 8G- 8E- 8BB-^^\	8gg-J 8ee- 8b- 8g-^^\	.	.
=163	=163	=163	=163
8d 8B-\	(16ffLL 16dd\	.	.
.	16cc\	.	.
8r	16dd\	.	.
.	16b-\JJ)	.	.
8B-L 8G-X 8E- 8BB-^^\	8gg-XL 8cc 8b-^^\	.	.
8B-J 8G- 8E- 8BB-^^\	8gg-J 8cc 8b-^^\	.	.
=164	=164	=164	=164
8B-L 8BB-\	8ffL 8dd 8f\	.	.
8B- 8BB-\	8ee- 8cc 8f\	.	.
8B- 8BB-\	8dd 8b- 8f\	.	.
8B-J 8BB-\	8ee-J 8cc 8f\	.	.
!!LO:PB:g=original
=165	=165	=165	=165
(16B-\LL	4ff 4dd^^\	.	.
16d\	.	.	.
16c\	.	.	.
16B-\JJ	.	.	.
16A\LL	4gg 4een 4cc#X^^\	.	.
16B-\	.	.	.
16A\	.	.	.
16G\JJ	.	.	.
=166	=166	=166	=166
16F\LL	4aa 4ee-X 4ccn^^\	.	.
16En\	.	.	.
16F\	.	.	.
16F#X\JJ	.	.	.
16G\LL	4bb- 4dd 4b-^^\	.	.
16Fn\	.	.	.
16E-X\	.	.	.
16D\JJ)	.	.	.
=167	=167	=167	=167
8E-'\L	4gg 4cc 4b- 4g^\	.	.
8cJ 8G'\	.	.	.
(8C^\L	(16ff\LL	.	.
.	16ee-\	.	.
16D\L	16dd\	.	.
16E-\JJ	16cc\JJ)	.	.
=168	=168	=168	=168
8F\L)	(16b-/LL	.	.
.	16f/	.	.
8dJ 8B-\	16b-/	.	.
.	16dd/JJ)	.	.
8FF\L	8cc'\L	.	.
8cJ 8F\	8ffJ 8a 8f'\	.	.
!!LO:LB:g=original
=169	=169	=169	=169
*>B1	*>B1	*	*
8BB-\L	8dd 8b-\	.	.
8B-J 8F 8D\	8r	.	.
8F#X\L	16dd\LL	.	.
.	16ee-\	.	.
8dJ 8A\	16dd\	.	.
.	16cc\JJ	.	.
=170:|!	=170:|!	=170:|!	=170:|!
*>B2	*>B2	*	*
8B-L 8F 8D 8BB-\	16ddd\LL	.	f
.	16fff\	.	.
8B- 8F 8D 8BB-\	16eee-\	.	.
.	16ddd\JJ	.	.
8A 8F 8E- 8BB-\	16ccc\LL	.	.
.	16eee-\	.	.
8AJ 8F 8E- 8BB-\	16ddd\	.	.
.	16ccc\JJ	.	.
=171	=171	=171	=171
*>C	*>C	*	*
8B-L 8F 8D 8BB-\	16bb-\LL	.	.
.	16aa\	.	.
8B- 8F 8D 8BB-\	16bb-\	.	.
.	16bbn\JJ	.	.
8A 8F 8E- 8BB-\	16ddd\LL	.	.
.	16ccc\	.	.
8AJ 8F 8E- 8BB-\	16aa\	.	.
.	16ff\JJ	.	.
=172	=172	=172	=172
8B-L 8F 8D 8BB-\	16bb-X\LL	.	.
.	16ddd\	.	.
8B- 8F 8D 8BB-\	16ccc\	.	.
.	16bb-\JJ	.	.
8A 8F 8E- 8BB-\	16aa\LL	.	.
.	16bb-\	.	.
8AJ 8F 8E- 8BB-\	16aa\	.	.
.	16gg\JJ	.	.
!!LO:LB:g=original
=173	=173	=173	=173
8B-L 8F 8D 8BB-\	16ff\LL	.	.
.	16een\	.	.
8B- 8F 8D 8BB-\	16ff\	.	.
.	16ff#X\JJ	.	.
8A 8F 8E- 8BB-\	16aa\LL	.	.
.	16gg\	.	.
8AJ 8F 8E- 8BB-\	16ffn\	.	.
.	16ee\JJ	.	.
=174	=174	=174	=174
8B- 8F 8D 8BB-\	8dd\	.	.
8f^^\L	8ff^^\L	jak	.
8c^^\	8cc^^\	częs-	.
8d^^\J	8dd^^\J	-to	.
=175	=175	=175	=175
8A\L	8a\L	praw-	<
16B-\L	16b-\L	-dę	.
16c\JJ	16cc\JJ	.	.
[4d-X^^\	[4dd-X^^\	bu-	[
=176	=176	=176	=176
4.d-\]	4.dd-\]	.	.
8En\	8en/	-dzi	.
!!LO:LB:g=original
=177	=177	=177	=177
8F'\L	(8f/	żart!	.
(8B-\	16f/LL	.	.
.	16d/JJ	.	.
8F\	16b-/LL	.	.
.	16f/JJ	.	.
8D\J	16dd\LL	.	.
.	16b-\JJ	.	.
=178	=178	=178	=178
8BB-'/)	8ff\)	.	.
8FL 8FF'/	8ddL 8b- 8f'\	.	.
8D 8DD'/	8ff 8dd 8b-'\	.	.
8BB-J 8BBB-'/	8bb-J 8dd 8b-'\	.	.
=179	=179	=179	=179
*ped	*	*	*
[2e- 2c [2F\	[2gg [2cc [2b-\	.	???
=180	=180	=180	=180
*Xped	*	*	*
4e-] 4c 4F\]	4gg] 4cc] 4b-\]	.	.
!LO:TX:t=P:problem:spiccato u dołu	!	!	!
4F 4C 4AA 4FF^^</	4ff 4ee- 4cc 4a\	.	.
=181	=181	=181	=181
8B- 8F 8D 8BB-\	8b- 8f 8d/	.	.
8r	8r	.	.
4A-X 4F 4D 4BB-\	(16bb-^\LL	.	ff
.	16ccc\	.	.
.	16bb-\	.	.
.	16aa-X\JJ)	.	.
!!LO:LB:g=original
=182	=182	=182	=182
4G 4E- 4BB-^^\	(16gg\LL	.	.
.	16ff\	.	.
.	16ee-\	.	.
.	16dd\JJ	.	.
4An 4F 4C 4BB-^^\	16cc\LL	.	.
.	16dd\	.	.
.	16ee-\	.	.
.	16ff\JJ	.	.
=183	=183	=183	=183
4B- 4F 4D 4BB-\	16dd\LL	.	.
.	16ff\	.	.
.	16bb-\	.	.
.	16ccc\JJ	.	.
!LO:TX:t=P:problem:spiccato u dołu	!	!	!
8F#XL 8D 8C 8AA^^</	16ddd\LL	.	.
.	16eee-\	.	.
8F#J 8D 8FF#X/	16ddd\	.	.
.	16ccc\JJ	.	.
=184	=184	=184	=184
8GL 8D 8GG^^\	16bb-\LL	.	.
.	16aa\	.	.
8c#X 8B- 8G 8En'\	16gg\	.	.
.	16ggg\JJ	.	.
8dJ 8B- 8F'\	8fffL 8ff\)	.	.
!LO:TX:t=P:problem:spiccato u dołu	!	!	!
8F 8FF^^</	8aaJ 8ff 8ee-X 8ccn^^\	.	.
=185	=185	=185	=185
!LO:TX:t=P:problem:spiccato u dołu	!	!	!
8BB- 8FF 8BBB-^^</	8bb- 8ff 8dd 8b-^^\	.	.
8r	8r	.	.
4r	4r	.	.
==	==	==	==
*-	*-	*-	*-
!!!system-decoration: {(p1)}
!!!RDF**kern: > = above
!!!RDF**kern: < = below
!!!ENC: Andrzej Gręziak
!!!END: 2022-08-23
!!!ENC: Kamil Watkowski
!!!END: 2022-09-29
